images/avatar.svg

<?xml version="1.0" encoding="utf-8"?><svg xmlns="http://www.w3.org/2000/svg" xmlns:xlink="http://www.w3.org/1999/xlink" version="1.1" class="page" pageAlignment="none" x="0px" y="0px" width="32px" height="32px" viewBox="0 0 32 32" enable-background="new 0 0 32 32" xml:space="preserve"><title>Melih Bilgil (www.lonja.de), Christopher Adjei (www.boffer.net)</title><defs/><style type="text/css"/><style type="text/css"/><g type="LAYER" name="workspace" id="workspace" locked="true"/><g id="background"/><g transform="matrix(1 0 0 1 -5.3290705182007514e-14 -5.773159728050814e-15)" id="avatar"><path width="32" height="32" stroke-miterlimit="3" stroke="none" fill="#000000" fill-opacity="0.32666666666666666" d="M28,18 L24.092,18 C25.291999999999998,14.865 25.997,11.15 26,7.4030000000000005 C26,5.614000000000001 25.508,3.9320000000000004 24.651,2.4890000000000008 L24.177,1.6920000000000006 L23.348,2.1020000000000008 C23.346999999999998,2.1030000000000006 22.814999999999998,2.3650000000000007 21.988999999999997,2.7040000000000006 C20.523,1.047 18.386,0 16,0 C13.613,0 11.472999999999999,1.048 10.007,2.707 C9.18,2.368 8.647,2.105 8.645,2.1069999999999998 L7.813,1.6969999999999998 L7.342,2.493 C6.488,3.937 6,5.618 6,7.403 C6.002,11.15 6.707,14.865 7.906,18 C4.455,18 4,18 4,18 C4,18 0,18.167 0,22 C0,24 0,32 0,32 L32,32 L32,22 C32,22 32,18 28,18 Z M21.467,19.058 C19.912,22.23 17.834999999999997,24.045 15.998999999999999,24 C14.162999999999998,24.045 12.084999999999999,22.229 10.530999999999999,19.058 C8.982999999999999,15.926 7.996999999999999,11.649000000000001 7.998999999999999,7.404 C7.998999999999999,6.3 8.232999999999999,5.256 8.653999999999998,4.306 C10.151999999999997,4.962 13.268999999999998,6.182 15.998999999999999,6.203 C18.727,6.180000000000001 21.845,4.957000000000001 23.342,4.301 C23.764999999999997,5.251 23.999,6.297000000000001 23.999,7.4030000000000005 C24.003,11.648 23.015,15.926 21.467,19.058 Z M11,16 C11,16 12,20 16,20 C19.917,20 21,16 21,16 C21,16 18,17 16,17 C14,17 11,16 11,16 Z M15,10 C15,10 14,8 12,8 C10,8 9,10 9,10 C9,10 11,10 12,10 C13,10 15,10 15,10 Z M20,8 C18,8 17,10 17,10 C17,10 19,10 20,10 C21,10 23,10 23,10 C23,10 22,8 20,8 Z "/></g></svg>

<?xml version="1.0" encoding="UTF-8" standalone="no"?>
<svg
   xmlns:dc="http://purl.org/dc/elements/1.1/"
   xmlns:cc="http://creativecommons.org/ns#"
   xmlns:rdf="http://www.w3.org/1999/02/22-rdf-syntax-ns#"
   xmlns:svg="http://www.w3.org/2000/svg"
   xmlns="http://www.w3.org/2000/svg"
   xmlns:sodipodi="http://sodipodi.sourceforge.net/DTD/sodipodi-0.dtd"
   xmlns:inkscape="http://www.inkscape.org/namespaces/inkscape"
   version="1.1"
   x="0px"
   y="0px"
   width="32px"
   height="32px"
   viewBox="0 0 32 32"
   enable-background="new 0 0 32 32"
   xml:space="preserve"
   id="svg2"
   >

<metadata><rdf:RDF>

   <cc:Work rdf:about="">
   <dc:format>image/svg+xml</dc:format>
   <dc:type rdf:resource="http://purl.org/dc/dcmitype/StillImage" />
   <dc:title>PICOL Icon</dc:title>
   <dc:date>2009-03-15</dc:date>
   <dc:creator><cc:Agent><dc:title>Melih Bilgil</dc:title></cc:Agent></dc:creator>
   <dc:rights><cc:Agent><dc:title>Creative Commons BY-SA</dc:title></cc:Agent></dc:rights>
   <dc:publisher><cc:Agent><dc:title>PICOL - Pictorial Communication Language</dc:title></cc:Agent></dc:publisher>
   <dc:identifier>http://blog.picol.org</dc:identifier>
   <dc:source>http://blog.picol.org</dc:source>
   <dc:language>en</dc:language>
   <dc:subject>
     <rdf:Bag>
       <rdf:li>PICOL</rdf:li>
       <rdf:li>icon</rdf:li>
       <rdf:li>icons</rdf:li>
       <rdf:li>sign</rdf:li>
       <rdf:li>GUI</rdf:li>
       <rdf:li>vector</rdf:li>
       <rdf:li>interface</rdf:li>
     </rdf:Bag>
   </dc:subject>
   <dc:description>This is one icon out of all PICOL icons</dc:description>
   <dc:contributor>
       <cc:Agent><dc:title>Melih Bilgil (www.lonja.de), Christopher Adjei (www.boffer.net)</dc:title></cc:Agent></dc:contributor>
   <cc:license rdf:resource="http://creativecommons.org/licenses/by-sa/3.0/" /></cc:Work>
   <cc:License rdf:about="http://creativecommons.org/licenses/by-sa/3.0/">
       <cc:permits rdf:resource="http://creativecommons.org/ns#Reproduction" />
       <cc:permits rdf:resource="http://creativecommons.org/ns#Distribution" />
       <cc:requires rdf:resource="http://creativecommons.org/ns#Notice" />
       <cc:requires rdf:resource="http://creativecommons.org/ns#Attribution" />
       <cc:permits rdf:resource="http://creativecommons.org/ns#DerivativeWorks" />
       <cc:requires rdf:resource="http://creativecommons.org/ns#ShareAlike" /></cc:License>

   </rdf:RDF>
</metadata>

<g id="background">
	<rect x="0" y="0" fill="none" width="32" height="32"/>
</g>
<g id="avatar">
	<path d="M28,18h-3.908c1.2-3.135,1.905-6.85,1.908-10.597c0-1.789-0.492-3.471-1.349-4.914l-0.474-0.797l-0.829,0.41
		c-0.001,0.001-0.533,0.263-1.359,0.602C20.523,1.047,18.386,0,16,0c-2.387,0-4.527,1.048-5.993,2.707
		c-0.827-0.339-1.36-0.602-1.362-0.6l-0.832-0.41L7.342,2.493C6.488,3.937,6,5.618,6,7.403C6.002,11.15,6.707,14.865,7.906,18
		C4.455,18,4,18,4,18s-4,0.167-4,4c0,2,0,10,0,10h32V22C32,22,32,18,28,18z M21.467,19.058c-1.555,3.172-3.632,4.987-5.468,4.942
		c-1.836,0.045-3.914-1.771-5.468-4.942c-1.548-3.132-2.534-7.409-2.532-11.654c0-1.104,0.234-2.148,0.655-3.098
		c1.498,0.656,4.615,1.876,7.345,1.897c2.728-0.023,5.846-1.246,7.343-1.902c0.423,0.95,0.657,1.996,0.657,3.102
		C24.003,11.648,23.015,15.926,21.467,19.058z M11,16c0,0,1,4,5,4c3.917,0,5-4,5-4s-3,1-5,1S11,16,11,16z M15,10c0,0-1-2-3-2
		s-3,2-3,2s2,0,3,0S15,10,15,10z M20,8c-2,0-3,2-3,2s2,0,3,0s3,0,3,0S22,8,20,8z"/>
</g>
</svg>
